assets/dude/We–Merle.svg

<svg width="241" height="106" viewBox="0 0 241 106" fill="none" xmlns="http://www.w3.org/2000/svg">
<path d="M145.923 10.02C141.303 10.02 137.103 6.93998 137.103 2.45998C137.103 1.19998 135.983 1.19998 135.843 1.19998C132.903 1.19998 129.683 2.45998 123.943 2.45998C118.203 2.45998 114.983 1.19998 112.043 1.19998C111.903 1.19998 110.783 1.19998 110.783 2.45998C110.783 6.93998 106.583 10.02 101.963 10.02C101.823 10.02 100.703 10.02 100.703 11.28C100.703 12.54 103.223 25.28 103.223 37.74C103.223 38.44 103.783 39 104.483 39H119.883C120.443 39 120.723 39.28 120.723 39.56C120.723 39.98 120.303 40.82 120.303 40.82L109.523 64.9C108.823 66.3 108.263 66.72 107.563 66.72H95.1029C94.4029 66.72 93.8429 66.3 93.0029 64.76L82.3629 40.82C82.3629 40.82 81.9429 39.98 81.9429 39.56C81.9429 39.28 82.2229 39 82.7829 39H92.5829C93.2829 39 93.8429 38.44 93.8429 37.74C93.8429 25.28 96.3629 12.54 96.3629 11.28C96.3629 10.02 95.2429 10.02 95.1029 10.02C90.4829 10.02 86.2829 6.93998 86.2829 2.45998C86.2829 1.19998 85.1629 1.19998 85.0229 1.19998C82.0829 1.19998 79.5629 2.45998 73.8229 2.45998C68.0829 2.45998 65.5629 1.19998 62.6229 1.19998C62.4829 1.19998 61.3629 1.19998 61.3629 2.45998C61.3629 6.93998 57.1629 10.02 52.5429 10.02C52.4029 10.02 51.2829 10.02 51.2829 11.28C51.2829 12.54 53.8029 25.28 53.8029 37.74V37.88C53.8029 38.3 54.0829 38.72 54.5029 38.86C54.6429 39 54.9229 39 55.0629 39H66.9629C67.5229 39 67.8029 39.28 67.8029 39.56C67.8029 39.98 67.3829 40.82 67.3829 40.82L56.6029 64.9C55.9029 66.3 55.3429 66.72 54.6429 66.72H42.1829C41.4829 66.72 40.9229 66.3 40.0829 64.76L29.4429 40.82C29.4429 40.82 29.0229 39.98 29.0229 39.56C29.0229 39.28 29.3029 39 29.8629 39H43.1629C43.8629 39 44.4229 38.44 44.4229 37.74C44.4229 25.28 46.9429 12.54 46.9429 11.28C46.9429 10.02 45.8229 10.02 45.6829 10.02C41.0629 10.02 36.8629 6.93998 36.8629 2.45998C36.8629 1.19998 35.7429 1.19998 35.6029 1.19998C32.6629 1.19998 29.4429 2.45998 23.7029 2.45998C17.9629 2.45998 14.7429 1.19998 11.8029 1.19998C11.6629 1.19998 10.5429 1.19998 10.5429 2.45998C10.5429 6.93998 6.34289 10.02 1.72289 10.02C1.58289 10.02 0.462891 10.02 0.462891 11.28C0.462891 12.54 2.98289 25.28 2.98289 37.74C2.98289 38.44 3.54289 39 4.24289 39H12.5029C13.2029 39 13.9029 39.56 14.4629 40.82L41.4829 101.86C41.7629 102.42 43.0229 104.52 45.9629 104.52C48.6229 104.52 50.0229 102.42 50.3029 101.86L70.8829 55.8C70.8829 55.8 71.5829 53.98 72.4229 53.98C73.2629 53.98 73.9629 55.8 73.9629 55.8L94.4029 101.86C94.6829 102.42 95.9429 104.52 98.8829 104.52C101.543 104.52 102.943 102.42 103.223 101.86L130.383 40.82C130.943 39.56 131.643 39 132.343 39H143.403C144.103 39 144.663 38.44 144.663 37.74C144.663 25.28 147.183 12.54 147.183 11.28C147.183 10.02 146.063 10.02 145.923 10.02Z" fill="#FF1C31"/>
<path d="M237.92 60.84C237.92 60.14 237.36 59.58 236.66 59.58H229.38C228.68 59.58 228.12 60.14 228.12 60.84C228.12 64.34 225.32 66.72 221.82 66.72H182.48C181.78 66.72 181.22 66.16 181.22 65.46V57.9C181.22 57.2 181.78 56.64 182.48 56.64H194.24C194.94 56.64 195.5 57.2 195.5 57.9V59.16C195.5 59.86 196.06 60.42 196.76 60.42H215.66C216.36 60.42 216.92 59.86 216.92 59.16V46.56C216.92 45.86 216.36 45.3 215.66 45.3H196.76C196.06 45.3 195.5 45.86 195.5 46.56V47.82C195.5 48.52 194.94 49.08 194.24 49.08H182.48C181.78 49.08 181.22 48.52 181.22 47.82V40.26C181.22 39.56 181.78 39 182.48 39H221.82C225.32 39 228.12 41.38 228.12 44.88C228.12 45.58 228.68 46.14 229.38 46.14H236.66C237.36 46.14 237.92 45.58 237.92 44.88V37.74C237.92 25.28 240.44 12.54 240.44 11.28C240.44 10.02 239.32 10.02 239.18 10.02C234.56 10.02 230.36 5.95997 230.36 1.47997C230.36 0.21997 229.24 0.219971 229.1 0.219971C224.62 0.219971 213.56 2.59997 196.34 2.59997C179.12 2.59997 168.06 0.219971 163.58 0.219971C163.44 0.219971 162.32 0.21997 162.32 1.47997C162.32 5.95997 158.12 10.02 153.5 10.02C153.36 10.02 152.24 10.02 152.24 11.28C152.24 12.54 154.76 25.28 154.76 37.74C154.76 38.44 155.32 39 156.02 39H169.88C170.58 39 171.14 39.56 171.14 40.26V65.46C171.14 66.16 170.58 66.72 169.88 66.72H156.02C155.32 66.72 154.76 67.28 154.76 67.98C154.76 80.44 152.24 93.18 152.24 94.44C152.24 95.7 153.36 95.7 153.5 95.7C158.12 95.7 162.32 99.62 162.32 104.1C162.32 105.36 163.44 105.36 163.58 105.36C168.06 105.36 179.12 102.98 196.34 102.98C213.56 102.98 224.62 105.36 229.1 105.36C229.24 105.36 230.36 105.36 230.36 104.1C230.36 99.62 234.56 95.7 239.18 95.7C239.32 95.7 240.44 95.7 240.44 94.44C240.44 93.18 237.92 80.44 237.92 67.98V60.84Z" fill="#FF1C31"/>
</svg>

<svg xmlns="http://www.w3.org/2000/svg" fill="none" viewBox="0 0 241 106"><path fill="#FF1C31" d="M145.923 10.02c-4.62 0-8.82-3.08-8.82-7.56 0-1.26-1.12-1.26-1.26-1.26-2.94 0-6.16 1.26-11.9 1.26s-8.96-1.26-11.9-1.26c-.14 0-1.26 0-1.26 1.26 0 4.48-4.2 7.56-8.82 7.56-.14 0-1.26 0-1.26 1.26s2.52 14 2.52 26.46c0 .7.56 1.26 1.26 1.26h15.4c.56 0 .84.28.84.56 0 .42-.42 1.26-.42 1.26l-10.78 24.08c-.7 1.4-1.26 1.82-1.96 1.82h-12.46c-.7 0-1.26-.42-2.1-1.96l-10.64-23.94s-.42-.84-.42-1.26c0-.28.28-.56.84-.56h9.8c.7 0 1.26-.56 1.26-1.26 0-12.46 2.52-25.2 2.52-26.46 0-1.26-1.12-1.26-1.26-1.26-4.62 0-8.82-3.08-8.82-7.56 0-1.26-1.12-1.26-1.26-1.26-2.94 0-5.46 1.26-11.2 1.26-5.74 0-8.26-1.26-11.2-1.26-.14 0-1.26 0-1.26 1.26 0 4.48-4.2 7.56-8.82 7.56-.14 0-1.26 0-1.26 1.26s2.52 14 2.52 26.46v.14c0 .42.28.84.7.98.14.14.42.14.56.14h11.9c.56 0 .84.28.84.56 0 .42-.42 1.26-.42 1.26L56.603 64.9c-.7 1.4-1.26 1.82-1.96 1.82h-12.46c-.7 0-1.26-.42-2.1-1.96l-10.64-23.94s-.42-.84-.42-1.26c0-.28.28-.56.84-.56h13.3c.7 0 1.26-.56 1.26-1.26 0-12.46 2.52-25.2 2.52-26.46 0-1.26-1.12-1.26-1.26-1.26-4.62 0-8.82-3.08-8.82-7.56 0-1.26-1.12-1.26-1.26-1.26-2.94 0-6.16 1.26-11.9 1.26s-8.96-1.26-11.9-1.26c-.14 0-1.26 0-1.26 1.26 0 4.48-4.2 7.56-8.82 7.56-.14 0-1.26 0-1.26 1.26s2.52 14 2.52 26.46c0 .7.56 1.26 1.26 1.26h8.26c.7 0 1.4.56 1.96 1.82l27.02 61.04c.28.56 1.54 2.66 4.48 2.66 2.66 0 4.06-2.1 4.34-2.66l20.58-46.06s.7-1.82 1.54-1.82c.84 0 1.54 1.82 1.54 1.82l20.44 46.06c.28.56 1.54 2.66 4.48 2.66 2.66 0 4.06-2.1 4.34-2.66l27.16-61.04c.56-1.26 1.26-1.82 1.96-1.82h11.06c.7 0 1.26-.56 1.26-1.26 0-12.46 2.52-25.2 2.52-26.46 0-1.26-1.12-1.26-1.26-1.26zM237.92 60.84c0-.7-.56-1.26-1.26-1.26h-7.28c-.7 0-1.26.56-1.26 1.26 0 3.5-2.8 5.88-6.3 5.88h-39.34c-.7 0-1.26-.56-1.26-1.26V57.9c0-.7.56-1.26 1.26-1.26h11.76c.7 0 1.26.56 1.26 1.26v1.26c0 .7.56 1.26 1.26 1.26h18.9c.7 0 1.26-.56 1.26-1.26v-12.6c0-.7-.56-1.26-1.26-1.26h-18.9c-.7 0-1.26.56-1.26 1.26v1.26c0 .7-.56 1.26-1.26 1.26h-11.76c-.7 0-1.26-.56-1.26-1.26v-7.56c0-.7.56-1.26 1.26-1.26h39.34c3.5 0 6.3 2.38 6.3 5.88 0 .7.56 1.26 1.26 1.26h7.28c.7 0 1.26-.56 1.26-1.26v-7.14c0-12.46 2.52-25.2 2.52-26.46 0-1.26-1.12-1.26-1.26-1.26-4.62 0-8.82-4.06-8.82-8.54 0-1.26-1.12-1.26-1.26-1.26-4.48 0-15.54 2.38-32.76 2.38S168.06.22 163.58.22c-.14 0-1.26 0-1.26 1.26 0 4.48-4.2 8.54-8.82 8.54-.14 0-1.26 0-1.26 1.26s2.52 14 2.52 26.46c0 .7.56 1.26 1.26 1.26h13.86c.7 0 1.26.56 1.26 1.26v25.2c0 .7-.56 1.26-1.26 1.26h-13.86c-.7 0-1.26.56-1.26 1.26 0 12.46-2.52 25.2-2.52 26.46 0 1.26 1.12 1.26 1.26 1.26 4.62 0 8.82 3.92 8.82 8.4 0 1.26 1.12 1.26 1.26 1.26 4.48 0 15.54-2.38 32.76-2.38s28.28 2.38 32.76 2.38c.14 0 1.26 0 1.26-1.26 0-4.48 4.2-8.4 8.82-8.4.14 0 1.26 0 1.26-1.26s-2.52-14-2.52-26.46v-7.14z"/></svg>
